static/presentations/kauf_bkt/type2/1.svg

<?xml version="1.0" encoding="UTF-8" standalone="no"?>
<!-- Created with Vectornator (http://vectornator.io/) -->

<svg
   height="530"
   stroke-miterlimit="10"
   style="clip-rule:evenodd;fill-rule:nonzero;stroke-linecap:round;stroke-linejoin:round"
   version="1.1"
   viewBox="-20 0 530 530"
   width="530"
   xml:space="preserve"
   id="svg3"
   sodipodi:docname="1.svg"
   inkscape:version="1.3 (0e150ed6c4, 2023-07-21)"
   xmlns:inkscape="http://www.inkscape.org/namespaces/inkscape"
   xmlns:sodipodi="http://sodipodi.sourceforge.net/DTD/sodipodi-0.dtd"
   xmlns="http://www.w3.org/2000/svg"
   xmlns:svg="http://www.w3.org/2000/svg"
   xmlns:vectornator="http://vectornator.io"><sodipodi:namedview
   id="namedview3"
   pagecolor="#ffffff"
   bordercolor="#666666"
   borderopacity="1.0"
   inkscape:showpageshadow="2"
   inkscape:pageopacity="0.0"
   inkscape:pagecheckerboard="0"
   inkscape:deskcolor="#d1d1d1"
   inkscape:zoom="0.93888889"
   inkscape:cx="201.83432"
   inkscape:cy="358.40237"
   inkscape:window-width="1920"
   inkscape:window-height="1120"
   inkscape:window-x="-11"
   inkscape:window-y="-11"
   inkscape:window-maximized="1"
   inkscape:current-layer="svg3" />&#10;<defs
   id="defs1"><inkscape:path-effect
     effect="knot"
     id="path-effect3"
     is_visible="true"
     lpeversion="1"
     switcher_size="15"
     interruption_width="5"
     prop_to_stroke_width="true"
     add_stroke_width="inkscape_1.0_and_up"
     both="false"
     inverse_width="false"
     add_other_stroke_width="inkscape_1.0_and_up"
     crossing_points_vector="387.96942 | 249.99997 | 0 | 0 | 0 | 3 | 0.29651655 | 2.7034834 | -1 | 109.77866 | 249.99993 | 0 | 0 | 1 | 2 | 0.70529465 | 2.2947054 | 1" /></defs>&#10;&#10;&#10;<g
   clip-path="url(#ArtboardFrame)"
   id="Layer-2"
   vectornator:layerName="Layer 2"
   transform="translate(-5,15)">&#10;<clipPath
   id="ClipPath">&#10;<path
   d="m -88.582,543.19 141.6585,-311.568 56.7565,64.031 42.183,-44.728 -75.4038,-73.349 347.6758,6.7 -93.376,80.089 47.639,41.449 C 358.551,320.814 460,220 460,220 l 80,340"
   id="path2" />&#10;</clipPath>&#10;&#10;<path
   d="M 59.191428,305.53696 C 26.435244,353.77505 4.3013437,418.56712 0,500 -282.85388,880.15108 -775.99834,-709.87704 0,0 21.2312,401.948 476.927,398.467 500,0 1714.771,-1137.5881 1842.1775,1878.5296 500,500 495.28239,418.52756 472.47862,353.56781 439.0004,305.21004 M 316.80155,210.958 c -44.43313,-14.78581 -91.87892,-14.8325 -136.18616,-0.066"
   fill="none"
   opacity="1"
   stroke="#ffb86c"
   stroke-linecap="round"
   stroke-linejoin="round"
   stroke-width="30"
   id="path3"
   style="clip-rule:evenodd;fill-rule:nonzero;stroke-linecap:round;stroke-linejoin:round"
   sodipodi:nodetypes="ccccc"
   inkscape:path-effect="#path-effect3"
   inkscape:original-d="M 500,500 C 476.927,101.533 21.2312,98.0517 0,500 -282.85388,880.15108 -775.99834,-709.87704 0,0 c 21.2312,401.948 476.927,398.467 500,0 1214.771,-1137.5881 1342.1775,1878.5296 0,500 z" /></g>&#10;</svg>

<?xml version="1.0" encoding="UTF-8" standalone="no"?>
<!DOCTYPE svg PUBLIC "-//W3C//DTD SVG 1.1//EN" "http://www.w3.org/Graphics/SVG/1.1/DTD/svg11.dtd">
<!-- Created with Vectornator (http://vectornator.io/) -->
<svg height="100%" stroke-miterlimit="10" style="fill-rule:nonzero;clip-rule:evenodd;stroke-linecap:round;stroke-linejoin:round;" version="1.1" viewBox="-20 0 540 500" width="100%" xml:space="preserve" xmlns="http://www.w3.org/2000/svg" xmlns:vectornator="http://vectornator.io" xmlns:xlink="http://www.w3.org/1999/xlink">
<defs/>

<g clip-path="url(#ArtboardFrame)" id="Layer-1" vectornator:layerName="Layer 1">
<path d="M0 0C21.2312 401.948 476.927 398.467 500 0" fill="none" opacity="1" stroke="#ffb86c" stroke-linecap="round" stroke-linejoin="round" stroke-width="30"/>
</g>
<g clip-path="url(#ArtboardFrame)" id="Layer-2" vectornator:layerName="Layer 2">
<clipPath id="ClipPath">
<path d="M-88.582 543.19L53.0765 231.622L109.833 295.653L152.016 250.925L76.6122 177.576L424.288 184.276L330.912 264.365L378.551 305.814C358.551 320.814 460 220 460 220L540 560"/>
</clipPath>
<g clip-path="url(#ClipPath)">
<path d="M0 500C21.2312 98.0517 476.927 101.533 500 500" fill="none" opacity="1" stroke="#ffb86c" stroke-linecap="round" stroke-linejoin="round" stroke-width="30"/>
</g>
</g>
</svg>
